X:1
T: Salute to Preston
N:
C:Brian Wedgbury
S:
A:
O:
R:
M:4/4
K:G
I:speed 200
%W: A1
% voice 1 (1 lines, 27 notes)
K:G
M:4/4
L:1/16
D4 |G6 A2 B4 c4 |d8 e8 |d4 c2 B2 A4 d4 |B4 G8 D4 |G6 A2 B4 c4 |d8 g8 |f4 d4 A4 ^c4 |d12 D4 |
%W: A2
% voice 1 (1 lines, 26 notes)
G6 A2 B4 c4 |d8 e8 |d4 c2 B2 A4 d4 |B4 G8 D4 |G6 A2 B4 c4 |d8 g8 |f4 d4 A4 ^c4 |d12 d4 |
%W: B1
% voice 1 (1 lines, 27 notes)
e4 c8 c4 |d4 B8 B4 |c6 B2 A4 G4 |F2 G2 A2 F2 D4 d4 |e4 c8 c4 |d4 B8 B4 |A4 d8 ^c4 |d12 d4 |
%W: B2
% voice 1 (1 lines, 27 notes)
e4 c8 c4 |d4 B8 B4 |c6 B2 A4 G4 |F2 G2 A2 F2 D4 D4 |D4 G8 F4 |E4 c8 c4 |B6 A2 G4 F4 |G12 ||
